X:1
T:161 - Poder Espiritual
T:Letra: John Ellerton (1826-1893)
T:Trad.: Salomão Luiz Ginsburg (1867-1927)
T:Música: Edward John Hopkins (1818-1901)
L:1/4
Q:1/4=120
M:4/4
K:Abmaj
V:1
"Ab"E2 E F | E2 A2 | "Eb7"A G A B | "Ab"c4 | A2 A B | "Fm"A2 c2 | "Bb7"c B c =d | "Eb"e4 | "Ab"e2 A A | "Bbm"d2 d2 | "Eb7"d B c d | "Ab"c4 | A2 B A | "Db"A2 F2 | "Eb"E E F E | "Ab"E4 |]
w: 1.~Se-nhor Je-sus, oh, vem me con-ce-der A ple-ni-tu-de do Con-so-la-dor; Dos al-tos céus meou-tor-ga teu po-der, Po-der doEs-pí-ri-to re-no-va-dor.
w: 2.~Se-nhor, a-vi-va mi-nha tê-nue fé; A-tei-aem mim oar-dor ce-les-ti-al; O co-ra-ção meu gui-a por mer-cê, Ex-tir-pa,ex-pul-sa tu-doo queé car-nal.
w: 3.~Vem Tu fa-zer em mim ha-bi-ta-ção, Em tem-plo teu trans-for-ma-me, Se-nhor; A-qui meen-tre-goem tu-a san-ta mão, A teu Es-pí-ri-to re-no-va-dor.
w: 4.~Ou-tor-ga for-ça pra tes-te-mu-nhar No meu vi-ver, fa-lar e pro-ce-der; Cor-re-ta vi-da, san-ta, mo-de-lar, Tam-bém re-ple-ta de fer-vor, po-der.
W: 
W: 
W: 1. Senhor Jesus, oh, vem me conceder
W: A plenitude do Consolador;
W: Dos altos céus me outorga teu poder,
W: Poder do Espírito renovador.
W: 
W: 2. Senhor, aviva minha tênue fé;
W: Ateia em mim o ardor celestial;
W: O coração meu guia por mercê,
W: Extirpa, expulsa tudo o que é carnal.
W:
W:
W: 
W: 3. Vem Tu fazer em mim habitação,
W: Em templo teu transforma-me, Senhor;
W: Aqui me entrego em tua santa mão,
W: A teu Espírito renovador.
W: 
W: 4. Outorga força pra testemunhar
W: No meu viver, falar e proceder;
W: Correta vida, santa, modelar,
W: Também repleta de fervor, poder.
W:
W:





